!!!OTL: My Bonny Cuckoo
!!!ARE: Ireland
!!!AMD: Pentatonic
**kern
*clefG2
*k[]
*M6/8
*MM60
{8g/
=1
8.cc\L
16dd\k
8ee\J
8ee\L
8dd\
8cc\J
=2
4a/
8cc\
4g/}
{8g/
=3
8g/L
8a/
8cc/J
4dd\
(16cc\LL
16dd\JJ)
=4
4ee\
8dd\
4cc\}
{8ee\
=5
4a/
8dd\
4g/
8cc\
=6
8e/L
8d/
8c/J
4d/}
{8g/
=7
(8g/L
8a/)
8cc/J
4dd\
(16cc\LL
16dd\JJ)
=8
4ee\
8dd\
4cc\}
{8ee\
=9
4a/
8dd\
4g/
8cc\
=10
(8.e/L
16d/k)
8c/J
4d/}
{8g/
=11
8g/L
8a/
8cc/J
8dd\L
8cc\
(16cc\L
16dd\JJ)
=12
4ee\
8dd\
4cc\}
==
*-
